X:136
T:On the Road (r)
B:NFID.167
136on_road
S:F&MB
L:1/8
M:C
R:reel % played A-B-C-D-E-A, suggested final measures
|EdcA GEFG|A4z4|
Q:360
K:D
%A
FDDE FDGE|FDDF ABAG|FDDE FDGF|EdcA GBAG|
FDDE FDGE|FDDF ABAG|FDDE FDGF|EdcA GEFG||
%B
Addd ABAF|Ad (3dcd A2FG|Ad (3dcd A2FG|EdcA GEFG|
Ad (3dcd ABAF|Ad (3dcd A2Bc|defd AFED|1 EdcA GEFG:|\
[2 EdcA GBeg||
%C
fd (3dcd fdge|fdfg afge|fd (3dcd fdef|g2bg ebge|
fd (3dcd fdge|fdfg afge|fd (3dcd fdgf|Edcd efge||
%D
fbec dBAF|Ad (3dcd edBc|defd AFED|EdcA G2eg|
fbec dBAF|Ad (3dcd edBc|defd AFED|EdcA GABc||
%E
dD (3DDD AD (3DDD|dD (3DDD ADBc|dD (3DDD ADED|EdcA GABc|
dD (3DDD AD (3DDD|dD (3DDD A2Bc|defd AF (3FED|1 EdcA GABc:|\
[2 edcA GBAG|]

%%%

